X: 22
T:22.  Jah County
C:c 2006 Harry Bolick  
R:Breakdown
O:United States
A:Brooklyn, New York
M:4/4
L:1/8
Q:250
K:Eb
 |: "Cm"AGAG B4|G G2 A GEDC|AGAG B4 |"B"GGFD "Cm"C4:| 
|: "Cm"eefe g4 |"B"ff2 g fecG| "Cm"eefe g4| "B"feBG "Cm"c4:|
